svg/white/dash.svg

<svg height="32" viewBox="0 0 32 32" width="32" xmlns="http://www.w3.org/2000/svg"><path d="m16 32c-8.836556 0-16-7.163444-16-16s7.163444-16 16-16 16 7.163444 16 16-7.163444 16-16 16zm3.0857143-23.9956044h-7.2747253l-.6021978 3.367033 6.5626374.0087912c3.2307692 0 4.189011 1.1736264 4.1582417 3.1208791-.0131868.9978022-.4483516 2.6857143-.632967 3.2307692-.4967033 1.4593407-1.5208791 3.1208792-5.3582418 3.1164835l-6.37802194-.0043956-.6021978 3.3714286h7.25714284c2.5582418 0 3.6483517-.2989011 4.8-.8307692 2.5538462-1.178022 4.0747253-3.7010989 4.6857143-6.9934066.9054945-4.9010989-.2241758-8.3868132-6.6153846-8.3868132zm-3.2791209 7.7934066c.2373626-.9846154.3120879-1.3802198.3120879-1.3802198h-7.44615383c-1.9032967 0-2.17582417 1.2395605-2.35604395 1.9912088-.23736264.9802198-.31208792 1.3802198-.31208792 1.3802198h7.4461539c1.9032967 0 2.1758241-1.2395605 2.3560439-1.9912088z" fill="#fff"/></svg>

<?xml version="1.0" encoding="UTF-8"?>
<svg width="32px" height="32px" viewBox="0 0 32 32" version="1.1" xmlns="http://www.w3.org/2000/svg" xmlns:xlink="http://www.w3.org/1999/xlink">
    <!-- Generator: Sketch 50 (54983) - http://www.bohemiancoding.com/sketch -->
    <title>white/dash</title>
    <desc>Created with Sketch.</desc>
    <defs></defs>
    <g id="white/dash" stroke="none" stroke-width="1" fill="none" fill-rule="evenodd">
        <path d="M16,32 C7.163444,32 0,24.836556 0,16 C0,7.163444 7.163444,0 16,0 C24.836556,0 32,7.163444 32,16 C32,24.836556 24.836556,32 16,32 Z M19.0857143,8.0043956 L11.810989,8.0043956 L11.2087912,11.3714286 L17.7714286,11.3802198 C21.0021978,11.3802198 21.9604396,12.5538462 21.9296703,14.5010989 C21.9164835,15.4989011 21.4813187,17.1868132 21.2967033,17.7318681 C20.8,19.1912088 19.7758242,20.8527473 15.9384615,20.8483516 L9.56043956,20.843956 L8.95824176,24.2153846 L16.2153846,24.2153846 C18.7736264,24.2153846 19.8637363,23.9164835 21.0153846,23.3846154 C23.5692308,22.2065934 25.0901099,19.6835165 25.7010989,16.3912088 C26.6065934,11.4901099 25.4769231,8.0043956 19.0857143,8.0043956 Z M15.8065934,15.7978022 C16.043956,14.8131868 16.1186813,14.4175824 16.1186813,14.4175824 L8.67252747,14.4175824 C6.76923077,14.4175824 6.4967033,15.6571429 6.31648352,16.4087912 C6.07912088,17.389011 6.0043956,17.789011 6.0043956,17.789011 L13.4505495,17.789011 C15.3538462,17.789011 15.6263736,16.5494505 15.8065934,15.7978022 Z" id="Combined-Shape" fill="#FFFFFF" fill-rule="nonzero"></path>
        <g id="Dash-(DASH)" transform="translate(6.000000, 8.000000)"></g>
    </g>
</svg>
